X:39
T:Green Hills of Tyrol, The
R:march
H:Based in 1854 by Pipe Major John MacLeod on the tune
H:"Toi que l'oiseau ne suivrait pas!" from the opera
H:William Tell by Giacomo Rossini (1792-1868)
O:Scottish
Z:id:hn-march-39
M:3/4
L:1/8
K:Amix
A>B | c2 cA cd | e2 ef cf | e>c B2 Bf | e>c A2 A>B |
c2 cA cd | e2 ef cf | e>c B2 BA | c>B A2 :|
|: ce | a2 a2 gf | fe e2 e>f | ed d2 d>e | dc c2 ce |
a2 a2 gf | fe e2 e>f | e2 e>d cd | e2 e2 :|

